**kern	**silbe	**kern	**silbe
*ICvox	*	*ICvox	*
*D-:	*	*D-:	*
*M4/4	*	*M4/4	*
*clefF4	*	*clefF4	*
r;	.	r;	.
=1	=1	=1	=1
1r	.	1r	.
=2	=2	=2	=2
1r	.	1r	.
=3	=3	=3	=3
1r	.	1r	.
=4	=4	=4	=4
1r	.	1r	.
=5	=5	=5	=5
1r	.	1r	.
=6	=6	=6	=6
1r	.	1r	.
=7	=7	=7	=7
1r	.	1r	.
=8	=8	=8	=8
1r	.	1r	.
=9	=9	=9	=9
4d-	Sun-	1r	.
[4d-	-shine	.	.
8d-]	_	.	.
4c	came	.	.
[8c-	soft	.	.
=10	=10	=10	=10
8c-]	_	1r	.
4D-	ly	.	.
8D-	a-	.	.
8F	-through	.	.
4.A-	my	.	.
=11	=11	=11	=11
4r	.	1r	.
8r	.	.	.
8D-	a-	.	.
8d-	-win-	.	.
8d-	-dow	.	.
8c	to-	.	.
[8c-	-day	.	.
=12	=12	=12	=12
4c-]	_	1r	.
4r	.	.	.
2r	.	.	.
=13	=13	=13	=13
4r	.	1r	.
8d-	Could-	.	.
8d-	-'ve	.	.
8d-	tripped	.	.
4c	out	.	.
[8c-	ea	.	.
=14	=14	=14	=14
8c-]	_	1r	.
4D-	sy	.	.
8D-	a-	.	.
8F	-but	.	.
4.A-	I've	.	.
=15	=15	=15	=15
4r	.	1r	.
8r	.	.	.
8D-	I	.	.
6d-	changed	.	.
6c	my	.	.
[6c-	ways	.	.
=16	=16	=16	=16
4c-]	_	1r	.
4r	.	.	.
2r	.	.	.
=17	=17	=17	=17
2r	.	1r	.
8d-	It-	.	.
8d-	-'ll	.	.
8c-	take	.	.
[8B-	time,	.	.
=18	=18	=18	=18
8B-]	_	1r	.
4D-	I	.	.
[8G-	know	.	.
8G-]	_	.	.
4B-	it	.	.
8r	.	.	.
=19	=19	=19	=19
2r	.	1r	.
8d-	but	.	.
8d-	in	.	.
8c-	a	.	.
[8B-	while	.	.
=20	=20	=20	=20
2B-]	_	1r	.
2r	.	.	.
=21	=21	=21	=21
4r	.	1r	.
8r	.	.	.
8D-	you're	.	.
8d-	gon-	.	.
8d-	-na	.	.
8c	be	.	.
[8c-	mine,	.	.
=22	=22	=22	=22
4.c-]	_	1r	.
8D-	I	.	.
8F	know	.	.
4A-	it	.	.
8r	.	.	.
=23	=23	=23	=23
4r	.	1r	.
8r	.	.	.
8D-	we'll	.	.
8d-	do	.	.
8d-	it	.	.
8c	in	.	.
[8c-	style	.	.
=24	=24	=24	=24
2c-]	_	1r	.
2r	.	.	.
=25	=25	=25	=25
4A-	'Cuz	4c	_
4A-	I	4c	_
4A-	made	4c	_
4A-	my	4c	_
=26	=26	=26	=26
2A-	mind	2c	_
8A-	up,	4c	_
8A-	y-	.	.
4A-	-you're	4c	_
=27	=27	=27	=27
4d-	go-	4d-	_
4D-	-ing	4D-	_
8D-	to	8D-	_
4D-	be	4D-	_
[8D-	mine	[8D-	_
=28	=28	=28	=28
4D-]	_	4D-]	_
8r	.	4r	.
8D-	I'll	.	.
8F	tell	2r	.
8G-	you	.	.
8F	right	.	.
8A-	now,	.	.
=29	=29	=29	=29
4r	.	1r	.
8d-	A-	.	.
8d-	-ny	.	.
8d-	trick	.	.
8c	in	.	.
8c	the	.	.
[8c-	book	.	.
=30	=30	=30	=30
8c-]	_	1r	.
8D-	a-	.	.
8D-	-now,	.	.
[8F	ba	.	.
8F]	_	.	.
4.A-	by	.	.
=31	=31	=31	=31
4r	.	1r	.
8r	.	.	.
8D-	all	.	.
8d-	that	.	.
8d-	I	.	.
8c	can	.	.
[8c-	find	.	.
=32	=32	=32	=32
2.c-_	_	1r	.
8c-]	_	.	.
8r	.	.	.
=33	=33	=33	=33
4r	.	1r	.
8d-	Ev-	.	.
8d-	-'ry-	.	.
8d-	-bo-	.	.
4c	-dy's	.	.
[8c-	hust	.	.
=34	=34	=34	=34
8c-]	_	1r	.
4D-	ling	.	.
8D-	a-	.	.
4F	-just	.	.
4A-	to	.	.
=35	=35	=35	=35
4r	.	1r	.
8d-	have	.	.
8d-	a	.	.
8d-	lit-	.	.
4c	-tle	.	.
[8c-	scene	.	.
=36	=36	=36	=36
2.c-]	_	1r	.
4r	.	.	.
=37	=37	=37	=37
4r	.	1r	.
8d-	When	.	.
8d-	I	.	.
8d-	say	.	.
8d-	we'll	.	.
8c	be	.	.
[8c-	cool	.	.
=38	=38	=38	=38
4.c-]	_	1r	.
8D-	I	.	.
4F	think	.	.
4A-	that	.	.
=39	=39	=39	=39
4r	.	1r	.
8r	.	.	.
8E-	you	.	.
8d-	know	.	.
8d-	what	.	.
8c	I	.	.
[8c-	mean	.	.
=40	=40	=40	=40
2.c-]	_	1r	.
4r	.	.	.
=41	=41	=41	=41
4r	.	1r	.
8r	.	.	.
8E-	We	.	.
8d-	stood	.	.
8c	on	.	.
8c-	a	.	.
[8B-	beach	.	.
=42	=42	=42	=42
8B-]	_	1r	.
4D-	at	.	.
[8G-	sun	.	.
8G-]	_	.	.
8B-	set	.	.
4r	.	.	.
=43	=43	=43	=43
8r	.	1r	.
8G-	do	.	.
8d-	you	.	.
8d-	re-	.	.
8c	-mem-	.	.
4c-	-ber	.	.
[8B-	when	.	.
=44	=44	=44	=44
2B-_	_	1r	.
8B-]	_	.	.
8r	.	.	.
4r	.	.	.
=45	=45	=45	=45
2r	.	1r	.
8d-	I	.	.
8d-	know	.	.
8c	a	.	.
[8c-	beach	.	.
=46	=46	=46	=46
4c-]	_	1r	.
8D-	where,	.	.
[8F	ba	.	.
8F]	_	.	.
4.A-	by	.	.
=47	=47	=47	=47
4r	.	1r	.
8r	.	.	.
8D-	a-	.	.
8d-	-it	.	.
8d-	ne-	.	.
8c	-ver	.	.
[8c-	ends	.	.
=48	=48	=48	=48
2c-]	_	1r	.
2r	.	.	.
=49	=49	=49	=49
4A-	When	4c	When
4A-	you've	4c	you've
4A-	made	4c	made
4A-	your	4c	your
=50	=50	=50	=50
2A-	mind	2c	mind
4A-	up,	4c	up,
4A-	for-	4c	for-
=51	=51	=51	=51
4d-	-e-	4d-	-e-
4D-	-ver	4D-	-ver
8D-	to	8D-	to
4D-	be	4D-	be
[8D-	mine,	[8D-	mine,
=52	=52	=52	=52
4D-]	_	4D-]	_
4r	.	4r	.
8F	hm-	2r	.
8G-	-hm-	.	.
8F	-hm-	.	.
8A-	-hm	.	.
=53	=53	=53	=53
4r	.	1r	.
8r	.	.	.
8D-	I'll	.	.
8d-	pick	.	.
8c	up	.	.
8c-	your	.	.
[8c-	hand	.	.
=54	=54	=54	=54
4c-]	_	1r	.
8D-	and	.	.
8D-	s-	.	.
8F	-low-	.	.
4.A-	-ly	.	.
=55	=55	=55	=55
4r	.	1r	.
8d-	blow	.	.
8d-	your	.	.
8d-	lit-	.	.
4c	-tle	.	.
[8c-	mind	.	.
=56	=56	=56	=56
2c-_	_	1r	.
8c-]	_	.	.
8r	.	.	.
4r	.	.	.
=57	=57	=57	=57
4A-	'Cuz	4c	'Cuz
4A-	I've	4c	I've
4A-	made	4c	made
4A-	my	4c	my
=58	=58	=58	=58
2A-	mind	2c	mind
4A-	up,	4c	up,
4A-	you're	4c	you're
=59	=59	=59	=59
4d-	go-	4d-	go-
4D-	-ing	4D-	-ing
8D-	to	8D-	to
4D-	be	4D-	be
[8D-	mine	[8D-	mine
=60	=60	=60	=60
4D-]	_	4D-]	_
8r	.	4r	.
8D-	I'll	.	.
8F	tell	2r	.
8G-	you	.	.
8F	right	.	.
8A-	now	.	.
=61	=61	=61	=61
4r	.	1r	.
8d-	A-	.	.
8d-	-ny	.	.
8d-	trick	.	.
8c	in	.	.
8c	the	.	.
[8c-	book,	.	.
=62	=62	=62	=62
8c-]	_	1r	.
8D-	a-	.	.
8D-	-now	.	.
[8F	ba	.	.
8F]	_	.	.
4.A-	by	.	.
=63	=63	=63	=63
4r	.	1r	.
8r	.	.	.
8D-	oh,	.	.
8d-	that	.	.
8d-	I	.	.
8c	can	.	.
[8c-	find!	.	.
=64	=64	=64	=64
1c-]	_	1r	.
=65	=65	=65	=65
1r	.	1r	.
=66	=66	=66	=66
1r	.	1r	.
=67	=67	=67	=67
1r	.	1r	.
=68	=68	=68	=68
1r	.	1r	.
=69	=69	=69	=69
1r	.	1r	.
=70	=70	=70	=70
1r	.	1r	.
=71	=71	=71	=71
1r	.	1r	.
=72	=72	=72	=72
1r	.	1r	.
=73	=73	=73	=73
1r	.	1r	.
=74	=74	=74	=74
1r	.	1r	.
=75	=75	=75	=75
1r	.	1r	.
=76	=76	=76	=76
1r	.	1r	.
=77	=77	=77	=77
1r	.	1r	.
=78	=78	=78	=78
1r	.	1r	.
=79	=79	=79	=79
4r	.	1r	.
8d-	Su-	.	.
8d-	-per-	.	.
8d-	-man	.	.
8d-	or	.	.
8c	Green	.	.
[8c-	Lan	.	.
=80	=80	=80	=80
4c-]	_	1r	.
8D-	tern	.	.
[8F	ain't	.	.
8F]	got	.	.
8A-	_	.	.
4r	.	.	.
=81	=81	=81	=81
4r	.	1r	.
8r	.	.	.
8E-	a-	.	.
8d-	-no-	.	.
8d-	-thing	.	.
8c	on	.	.
[8c-	me	.	.
=82	=82	=82	=82
8c-]	_	1r	.
8c-	uh	.	.
4r	.	.	.
2r	.	.	.
=83	=83	=83	=83
4r	.	1r	.
8d-	I	.	.
8d-	can	.	.
8d-	make	.	.
8c	like	.	.
8c	a	.	.
[8c-	tur	.	.
=84	=84	=84	=84
8c-]	_	1r	.
4D-	tle	.	.
8D-	and	.	.
4F	dive	.	.
4A-	for	.	.
=85	=85	=85	=85
4r	.	1r	.
8r	.	.	.
8E-	your	.	.
8d-	pearls	.	.
8d-	in	.	.
8c	the	.	.
[8c-	sea	.	.
=86	=86	=86	=86
4c-]	_	1r	.
8r	.	.	.
8f	yep!	.	.
2r	.	.	.
=87	=87	=87	=87
8r	.	1r	.
8B-	A-	.	.
8d-	-you-	.	.
8c	-you-	.	.
8d-	-you	.	.
8c	can	.	.
8c-	just	.	.
[8B-	sit	.	.
=88	=88	=88	=88
8B-]	_	1r	.
8Aq	_	.	.
4B-	there	.	.
8D-	while	.	.
4G-	thin-	.	.
4B-	-king	.	.
=89	=89	=89	=89
4r	.	1r	.
8d-	on	.	.
8d-	your	.	.
8c	vel-	.	.
4c-	-vet	.	.
[8B-	throne	.	.
=90	=90	=90	=90
2B-_	_	1r	.
8B-]	_	.	.
8r	.	.	.
4r	.	.	.
=91	=91	=91	=91
2r	.	1r	.
8d-	'bout	.	.
8d-	all	.	.
8c	the	.	.
[8c-	rain	.	.
=92	=92	=92	=92
8c-]	_	1r	.
4c-	bows	.	.
8D-	a-	.	.
8F	-you	.	.
4.A-	can	.	.
=93	=93	=93	=93
4r	.	1r	.
8r	.	.	.
8D-	a-	.	.
8d-	-have	.	.
8d-	for	.	.
8c	your	.	.
[8c-	own	.	.
=94	=94	=94	=94
2.c-]	_	1r	.
4r	.	.	.
=95	=95	=95	=95
4A-	When	4c	_
4A-	you've	4c	_
4A-	made	4c	_
4A-	your	4c	_
=96	=96	=96	=96
[4.A-	mind	2c	_
16A-]	_	.	.
[16A-	up,	.	.
8.A-]	_	4c	_
[16A-	for	.	.
4A-]	_	4c	_
=97	=97	=97	=97
4d-	e-	4d-	_
4D-	-ver	4D-	_
8D-	to	8D-	_
4D-	be	4D-	_
[8D-	mine,	[8D-	_
=98	=98	=98	=98
4D-]	_	4D-]	_
4r	.	4r	.
8F-	hm-	2r	.
8G-	-hm-	.	.
8F	-hm-	.	.
8G-	-hm	.	.
=99	=99	=99	=99
4r	.	1r	.
8r	.	.	.
8D-	I'll	.	.
8d-	pick	.	.
8c	up	.	.
8c-	your	.	.
[8c-	hand	.	.
=100	=100	=100	=100
4c-]	_	1r	.
8D-	and	.	.
8D-	s-	.	.
8F	-low-	.	.
4.A-	-ly	.	.
=101	=101	=101	=101
4r	.	1r	.
8d-	blow	.	.
8d-	your	.	.
8d-	lit-	.	.
4c	-tle	.	.
[8c-	mind	.	.
=102	=102	=102	=102
2c-_	_	1r	.
8c-]	_	.	.
8r	.	.	.
4r	.	.	.
=103	=103	=103	=103
4A-	When	4c	When
4A-	you've	4c	you've
4A-	made	4c	made
4A-	your	4c	your
=104	=104	=104	=104
2A-	mind	2c	mind
4A-	up,	4c	up,
4A-	for-	4c	for-
=105	=105	=105	=105
4d-	-e-	4d-	-e-
4D-	-ver	4D-	-ver
8D-	to	8D-	to
4D-	be	4D-	be
[8D-	mine	[8D-	mine
=106	=106	=106	=106
4D-]	_	4D-]	_
8r	.	4r	.
8D-	I'll	.	.
8F	pick	2r	.
8G-	up	.	.
8F	your	.	.
8A-	hand	.	.
=107	=107	=107	=107
4r	.	1r	.
8r	.	.	.
8D-	I'll	.	.
8d-	pick	.	.
8c	up	.	.
8c-	your	.	.
8c-	hand!	.	.
=108	=108	=108	=108
1r	.	1r	.
r;	.	r;	.
*-	*-	*-	*-
!!!ENC: Nathaniel Condit-Schultz